X:126
T: EINE ALTE BURG MIT MAUERN FEST
N: B0158
O: Europa, Mitteleuropa, Deutschland, Westerwald, Hardeck
R: Ballade, Romanze
M: 4/4
L: 1/8
K: C
C,E, | G,2G,2G,2G,2 | G,2CG,E,2
CC | D3DB,3B, | C4z2
C,E, | G,2G,2G,2G,2 | G,2CG,E,2
CC | D3DB,3B, | C4z2
G,2 | F,3E,D,E,F,A, | G,3F,E,3
E, | F,3E,D,E,F,G, | G,3F,E,2
C,E, | G,2G,2G,2G,2 | G,2C2E3
E | D3DB,3B, | C3CC2

@@@ Tune index: 1929
